X:1
T:Tat:ter Jack Welch -- Jig
R:jig
B:Ryan's Mammoth Collection
N: 91 481
Z: Contributed by Ray Davies,  ray:davies99.freeserve.co.uk
M:6/8
L:1/8
K:D
ug|\
fed ded | cAB c2d | cAG GFG | Adc deg |
fed ded | cAB c2d | cAG GFG | Adc d2:|
|:uA|\
dfa afd | dfa a2a | gfe efe | def g2g |
fed ded | cAB c2d | cAG GFG | Adc d2:|
